X:356279428816093
T:3-4-5-3-4-6-3-2-11-4-3-10-7-5-12-9
%%setfont-1 Courier-Bold 8
T:$1K.516f::32:95:113:63:153:97:134:30:102:139:126:82:101:160:44:111::$0
T:$1Perm. No.: 356279428816093$0
M:3/8
L:1/8
Q:1/8=111
%%staves [1 2]
V:1 clef=treble
V:2 clef=bass
K:C
%1
[V:1]|: Gce |\
[V:2]|: [E,2C,2]z |\
%2
[V:1] gec |\
[V:2] E,2 z & C,2 x |\
%3
[V:1] fdB |\
[V:2] [B,2G,2]z |\
%4
[V:1] e/c/B/c/G |\
[V:2] C,2z |\
%5
[V:1] d/A/^f/d/a/f/ |\
[V:2] C,2z |\
%6
[V:1] g/^f/g/d/B/G/ |\
[V:2] [D,2B,,2][G,B,,] |\
%7
[V:1] A/e/[d/B/][c/A/][B/G/][A/^F/] \
[V:2] C,D,D,, \
%8a
[V:1]|1 [g2d2B2G2]z :|2
[V:2]|1 G,,G,/=F,/E,/D,/ :|2
%8b
[V:1] [g2d2B2G2]z |:\
[V:2] G,,B,/G,/^F,/E,/ |:\
%9
[V:1] ^f/d/A f |\
[V:2] [A,2C,2][A,C,] |\
%10
[V:1] g/b/g/b/d |\
[V:2] B,,2z |\
%11
[V:1] c/G/c/e/g/[e/c/] |\
[V:2] E,2 E,/C,/ |\
%12
[V:1] d/B/Gg |\
[V:2] G,2 [D,B,,] & B,,2 x |\
%13
[V:1] e/d/e/g/c'/g/ |\
[V:2] G,2 E, & C,2 C, |\
%14
[V:1] c/B/c/e/G/c/ |\
[V:2] [E,2C,2][E,C,] |\
%15
[V:1] Af/d/a/g/ |\
[V:2] F,2G, |\
%16
[V:1] c2z :|]
[V:2] C,G,,C,, :|]
